X: 19146
T: Irish Wristwatch
R: reel
M: 4/4
K: Dmixolydian
A/B/c|:d2cB A D~D2|A,DFG ABcd|c G~G2 EGcd|edcG EGce|
d2cB A D~D2|A,DFG ABcd|c G~G2 EGcd|1 edce dgfe:|2 edce defg||
|:f d~d2 Adfg|afdB Adfa|~g2ga gfed|^c/B/A eA fAeg|
fdde dBAG|F/E/D FG ABcd|c G~G2 EGcd|1 edce defg:|2 edce dgfe||

